assets/images/ico_source.svg

<svg width="42" height="38" viewBox="0 0 42 38" fill="none" xmlns="http://www.w3.org/2000/svg">
<path d="M33.336 19.9166C33.5084 19.9154 33.6733 19.8461 33.7947 19.7239C33.9162 19.6016 33.9844 19.4362 33.9844 19.2639V18.4753H37.6072C37.692 18.4753 37.7733 18.4416 37.8333 18.3817C37.8933 18.3217 37.927 18.2404 37.927 18.1556V16.2281C37.927 16.1432 37.8933 16.0619 37.8333 16.0019C37.7733 15.942 37.692 15.9083 37.6072 15.9083H3.1269C3.04168 15.9083 2.95989 15.9418 2.89922 16.0017C2.83855 16.0615 2.80389 16.1428 2.80273 16.2281V18.1556C2.80389 18.2408 2.83855 18.3221 2.89922 18.3819C2.95989 18.4418 3.04168 18.4753 3.1269 18.4753H6.19337V19.2639C6.19337 19.437 6.26214 19.603 6.38455 19.7254C6.50696 19.8478 6.67298 19.9166 6.8461 19.9166H7.22721V27.0308H6.8461C6.67298 27.0308 6.50696 27.0996 6.38455 27.222C6.26214 27.3444 6.19337 27.5104 6.19337 27.6835V28.9714C6.19337 29.1445 6.26214 29.3106 6.38455 29.433C6.50696 29.5554 6.67298 29.6242 6.8461 29.6242H11.1392C11.3115 29.623 11.4764 29.5537 11.5979 29.4314C11.7193 29.3091 11.7875 29.1438 11.7875 28.9714V27.6835C11.7875 27.5112 11.7193 27.3458 11.5979 27.2235C11.4764 27.1012 11.3115 27.032 11.1392 27.0308H10.758V19.9166H11.1392C11.3115 19.9154 11.4764 19.8461 11.5979 19.7239C11.7193 19.6016 11.7875 19.4362 11.7875 19.2639V18.4753H17.8372V19.2639C17.8372 19.3515 17.8547 19.4382 17.8889 19.5188C17.9231 19.5995 17.9731 19.6724 18.0361 19.7333C18.099 19.7942 18.1736 19.8418 18.2553 19.8733C18.337 19.9048 18.4243 19.9195 18.5118 19.9166H18.8929V27.0308H18.5118C18.3387 27.0308 18.1727 27.0996 18.0503 27.222C17.9279 27.3444 17.8591 27.5104 17.8591 27.6835V28.9714C17.8591 29.0571 17.876 29.142 17.9088 29.2212C17.9416 29.3004 17.9897 29.3724 18.0503 29.433C18.1109 29.4936 18.1829 29.5417 18.262 29.5745C18.3412 29.6073 18.4261 29.6242 18.5118 29.6242H22.8049C22.9772 29.623 23.1421 29.5537 23.2636 29.4314C23.3851 29.3091 23.4532 29.1438 23.4532 28.9714V27.6835C23.4532 27.5112 23.3851 27.3458 23.2636 27.2235C23.1421 27.1012 22.9772 27.032 22.8049 27.0308H22.4238V19.9166H22.8049C22.9772 19.9154 23.1421 19.8461 23.2636 19.7239C23.3851 19.6016 23.4532 19.4362 23.4532 19.2639V18.4753H28.3902V19.2639C28.3902 19.434 28.4565 19.5974 28.5752 19.7193C28.6938 19.8412 28.8554 19.912 29.0254 19.9166H29.4066V27.0308H29.0254C28.8523 27.0308 28.6863 27.0996 28.5639 27.222C28.4415 27.3444 28.3727 27.5104 28.3727 27.6835V28.9714C28.3727 29.0571 28.3896 29.142 28.4224 29.2212C28.4552 29.3004 28.5033 29.3724 28.5639 29.433C28.6245 29.4936 28.6965 29.5417 28.7757 29.5745C28.8549 29.6073 28.9397 29.6242 29.0254 29.6242H33.3185C33.4909 29.623 33.6558 29.5537 33.7772 29.4314C33.8987 29.3091 33.9668 29.1438 33.9668 28.9714V27.6835C33.9668 27.5112 33.8987 27.3458 33.7772 27.2235C33.6558 27.1012 33.4909 27.032 33.3185 27.0308H32.9681V19.9166H33.336Z" fill="#D3C9BE"/>
<path d="M39.7228 14.0027V13.1703C39.7229 13.115 39.7094 13.0604 39.6834 13.0115C39.6574 12.9626 39.6198 12.9209 39.5739 12.89L20.737 0.058984C20.6809 0.0205607 20.6144 0 20.5464 0C20.4784 0 20.412 0.0205607 20.3559 0.058984L1.49269 12.8681C1.44737 12.8986 1.41014 12.9396 1.3842 12.9877C1.35825 13.0358 1.34437 13.0894 1.34375 13.1441V14.0202C1.34489 14.1093 1.38079 14.1944 1.4438 14.2575C1.50682 14.3205 1.59195 14.3564 1.68106 14.3575H39.3855C39.4311 14.357 39.4762 14.3473 39.518 14.329C39.5599 14.3108 39.5976 14.2843 39.629 14.2513C39.6605 14.2182 39.685 14.1791 39.7011 14.1364C39.7172 14.0938 39.7246 14.0483 39.7228 14.0027Z" fill="#D3C9BE"/>
<path d="M38.5767 30.7106H2.83475C2.542 30.7106 2.30469 30.9479 2.30469 31.2406V32.7432C2.30469 33.0359 2.542 33.2733 2.83475 33.2733H38.5767C38.8694 33.2733 39.1067 33.0359 39.1067 32.7432V31.2406C39.1067 30.9479 38.8694 30.7106 38.5767 30.7106Z" fill="#D3C9BE"/>
<path d="M40.7359 34.3509H0.670243C0.300078 34.3509 0 34.651 0 35.0211V37.3298C0 37.6999 0.300078 38 0.670243 38H40.7359C41.106 38 41.4061 37.6999 41.4061 37.3298V35.0211C41.4061 34.651 41.106 34.3509 40.7359 34.3509Z" fill="#D3C9BE"/>
</svg>

<svg width="42" height="38" fill="none" xmlns="http://www.w3.org/2000/svg"><path d="M33.336 19.917a.653.653 0 00.648-.653v-.789h3.623a.32.32 0 00.32-.32v-1.927a.32.32 0 00-.32-.32H3.127a.324.324 0 00-.324.32v1.928a.324.324 0 00.324.32h3.066v.788a.653.653 0 00.653.653h.381v7.114h-.38a.653.653 0 00-.654.652v1.288a.653.653 0 00.653.653h4.293a.653.653 0 00.649-.653v-1.288a.653.653 0 00-.649-.652h-.381v-7.114h.381a.653.653 0 00.649-.653v-.789h6.05v.789a.652.652 0 00.674.653h.38v7.114h-.38a.653.653 0 00-.653.652v1.288a.653.653 0 00.653.653h4.293a.653.653 0 00.648-.653v-1.288a.653.653 0 00-.648-.652h-.381v-7.114h.38a.653.653 0 00.65-.653v-.789h4.936v.789a.653.653 0 00.635.653h.382v7.114h-.382a.653.653 0 00-.652.652v1.288a.653.653 0 00.652.653h4.294a.653.653 0 00.648-.653v-1.288a.653.653 0 00-.648-.652h-.35v-7.114h.367zm6.387-5.914v-.833a.337.337 0 00-.15-.28L20.738.059a.337.337 0 00-.381 0L1.493 12.869a.337.337 0 00-.15.275v.876a.342.342 0 00.338.338h37.704a.34.34 0 00.338-.355zM38.577 30.71H2.835a.53.53 0 00-.53.53v1.503c0 .293.237.53.53.53h35.742a.53.53 0 00.53-.53v-1.502a.53.53 0 00-.53-.53zm2.159 3.64H.67a.67.67 0 00-.67.671v2.309c0 .37.3.67.67.67h40.066c.37 0 .67-.3.67-.67v-2.31c0-.37-.3-.67-.67-.67z" fill="#D3C9BE"/></svg>
